X:13670
T:Psalm No. 116
M:2/2
L:1/2
K:C
A A|B c|A B|A|G2||zA|B c|B/2sA/2s G|A2||zA|B B|A G/2sA/2s|B A|^G2||zB|A
A|B/2sA/2s ^G|A2||
